icons/1_Primary/Johns Hopkins.svg

<svg width="1024" height="1024" viewBox="0 0 1024 1024" fill="none" xmlns="http://www.w3.org/2000/svg">
<g clip-path="url(#clip0_2_2559)">
<path d="M512 1024C794.77 1024 1024 794.77 1024 512C1024 229.23 794.77 0 512 0C229.23 0 0 229.23 0 512C0 794.77 229.23 1024 512 1024Z" fill="#54688C"/>
<path d="M512 271.27C436.634 271.292 361.48 279.246 287.78 295L287.06 295.15L286.37 295.37C274.63 298.21 266 309.24 266 322V361.91C266 649.72 444.08 766.47 498.68 795.4C502.783 797.655 507.379 798.861 512.06 798.91C516.735 798.873 521.325 797.652 525.4 795.36C579.87 766.49 758 649.7 758 361.89V322C757.989 315.963 756.006 310.095 752.352 305.29C748.698 300.484 743.574 297.004 737.76 295.38L737.51 295.28L735.96 294.93C662.33 279.213 587.249 271.292 511.96 271.3L512 271.27ZM512 287.36C586.137 287.339 660.069 295.135 732.57 310.62L732.74 310.68C735.344 311.214 737.683 312.634 739.358 314.697C741.034 316.761 741.943 319.342 741.93 322V361.92C741.955 386.774 740.473 411.606 737.49 436.28C588.806 405.084 435.264 405.107 286.59 436.35C283.599 411.653 282.113 386.797 282.14 361.92V322C282.143 319.421 283.009 316.917 284.6 314.887C286.191 312.857 288.416 311.419 290.92 310.8L291.19 310.71C363.766 295.177 437.78 287.351 512 287.36ZM434.78 309.78C421.33 309.78 408.78 310.86 398.49 313.01C398.49 313.01 374.98 324.65 374.63 325.39L338.2 405.77C337.935 406.193 337.804 406.685 337.824 407.183C337.843 407.682 338.013 408.162 338.31 408.563C338.606 408.964 339.017 409.265 339.488 409.429C339.959 409.593 340.469 409.61 340.95 409.48C396.31 398.98 459.9 395.74 511.95 395.74C564.02 395.74 627.61 398.98 682.95 409.48C683.431 409.608 683.939 409.588 684.409 409.424C684.879 409.26 685.289 408.959 685.586 408.559C685.883 408.16 686.054 407.681 686.076 407.184C686.098 406.687 685.97 406.194 685.71 405.77L649.41 325.4C649.02 324.66 625.51 313.02 625.51 313.02C595.62 306.75 546.39 309.5 512.05 322.13H511.93C489.38 313.84 460.45 309.81 434.77 309.79L434.78 309.78ZM402.49 324.33L384.92 374.33C420.5 367.61 459.86 365.1 503.48 379.33L503.4 383.18C463.94 381.62 395.84 381.62 361.69 393.84L386 333.18L402.54 324.33H402.49ZM620.95 324.33L637.51 333.18L661.77 393.92C629.38 381.7 561.27 381.7 520 383.27V379.42C563.61 365.14 603 367.65 638.56 374.42L620.91 324.42L620.95 324.33ZM502 435.17V778.82C441.81 745.61 320.94 651.42 289.7 458.3L291.17 457.99C360.518 443.425 431.141 435.777 502 435.16V435.17ZM522.07 435.17C536.27 435.29 550.47 435.66 564.62 436.36V508.7L522 480.36V435.17H522.07ZM607.19 439.31C621.42 440.57 635.62 442.03 649.76 443.86V565.34L692.28 593.65V450.29C705.88 452.61 719.44 455.09 732.92 457.94L734.37 458.26C725.94 510.39 710.95 555.26 692.37 593.74C692.37 593.74 692.3 593.9 692.26 593.95C680.33 618.742 666.108 642.365 649.78 664.51C636.85 682.061 622.606 698.606 607.17 714V636.12L564.6 607.79V751C551.073 761.266 536.838 770.562 522 778.82V579.45L564.55 607.79V508.7L607.17 537V439.3L607.19 439.31ZM607.19 636.12L649.76 664.44V565.34L607.17 537L607.19 636.12ZM410.92 472C395.513 472 380.452 476.569 367.641 485.129C354.83 493.688 344.846 505.855 338.95 520.089C333.054 534.323 331.511 549.986 334.517 565.098C337.523 580.209 344.942 594.089 355.836 604.984C366.731 615.878 380.611 623.297 395.722 626.303C410.834 629.309 426.497 627.766 440.731 621.87C454.965 615.974 467.132 605.99 475.691 593.179C484.251 580.368 488.82 565.307 488.82 549.9C488.794 529.248 480.578 509.449 465.974 494.846C451.371 480.242 431.572 472.026 410.92 472ZM396.81 483.31C389.082 491.657 382.79 501.227 378.19 511.63C371.663 510.23 365.249 508.348 359 506C368.744 494.449 382.052 486.467 396.83 483.31H396.81ZM425.09 483.31C439.853 486.477 453.146 494.458 462.88 506C456.629 508.349 450.211 510.228 443.68 511.62C439.09 501.226 432.812 491.664 425.1 483.32L425.09 483.31ZM415.81 487.86C423.084 495.343 429.092 503.959 433.6 513.37C427.703 514.207 421.764 514.705 415.81 514.86V487.86ZM406 488V514.89C400.09 514.73 394.194 514.236 388.34 513.41C392.827 504.048 398.79 495.469 406 488ZM353.07 514.22C360.102 517.045 367.353 519.292 374.75 520.94C372.271 528.739 370.813 536.826 370.41 545H343.09C343.882 534.082 347.314 523.519 353.09 514.22H353.07ZM468.78 514.22C474.559 523.518 477.991 534.081 478.78 545H451.48C451.075 536.828 449.619 528.741 447.15 520.94C454.527 519.292 461.758 517.044 468.77 514.22H468.78ZM384.57 522.79C391.665 523.883 398.823 524.521 406 524.7V545H380.27C380.688 537.436 382.135 529.964 384.57 522.79ZM437.38 522.79C439.775 529.973 441.207 537.441 441.64 545H415.83V524.7C423.047 524.508 430.245 523.86 437.38 522.76V522.79ZM343.1 554.79H370.42C370.826 562.961 372.274 571.046 374.73 578.85C367.339 580.495 360.095 582.743 353.07 585.57C347.294 576.273 343.871 565.708 343.1 554.79ZM380.27 554.79H406V575.06C398.823 575.25 391.665 575.898 384.57 577C382.132 569.834 380.685 562.368 380.27 554.81V554.79ZM415.83 554.79H441.64C441.213 562.354 439.764 569.825 437.33 577C430.213 575.886 423.031 575.238 415.83 575.06V554.79ZM451.49 554.79H478.77C477.983 565.709 474.551 576.273 468.77 585.57C461.76 582.744 454.529 580.5 447.15 578.86C449.619 571.055 451.074 562.966 451.48 554.79H451.49ZM406 584.89V611.78C398.795 604.307 392.832 595.728 388.34 586.37C394.195 585.55 400.09 585.056 406 584.89ZM415.83 584.89C421.76 585.052 427.676 585.549 433.55 586.38C429.068 595.771 423.083 604.368 415.83 611.83V584.89ZM378.2 588.14C382.8 598.543 389.092 608.113 396.82 616.46C382.045 613.304 368.739 605.321 359 593.77C365.253 591.427 371.671 589.549 378.2 588.15V588.14ZM443.68 588.14C450.211 589.529 456.629 591.404 462.88 593.75C453.15 605.29 439.86 613.269 425.1 616.43C432.81 608.088 439.088 598.53 443.68 588.14Z" fill="white"/>
</g>
<defs>
<clipPath id="clip0_2_2559">
<rect width="1024" height="1024" fill="white"/>
</clipPath>
</defs>
</svg>

<svg xmlns="http://www.w3.org/2000/svg" viewBox="0 0 1024 1024">
   <circle cx="512" cy="512" r="512" style="fill:#002d72"/>
   <path d="M512 271.27A1074.1 1074.1 0 0 0 287.78 295l-.72.15-.69.22C274.63 298.21 266 309.24 266 322v39.91c0 287.81 178.08 404.56 232.68 433.49a28.4 28.4 0 0 0 13.38 3.51 27.66 27.66 0 0 0 13.34-3.55C579.87 766.49 758 649.7 758 361.89V322a27.69 27.69 0 0 0-20.24-26.62l-.25-.1-1.55-.35a1072.48 1072.48 0 0 0-224-23.63Zm0 16.09a1054.58 1054.58 0 0 1 220.57 23.26l.17.06a11.5 11.5 0 0 1 9.19 11.32v39.92a614.43 614.43 0 0 1-4.44 74.36 1097.09 1097.09 0 0 0-450.9.07 613.34 613.34 0 0 1-4.45-74.43V322a11.55 11.55 0 0 1 8.78-11.2l.27-.09A1054.46 1054.46 0 0 1 512 287.36Zm-77.22 22.42c-13.45 0-26 1.08-36.29 3.23 0 0-23.51 11.64-23.86 12.38l-36.43 80.38a2.48 2.48 0 0 0 2.75 3.71c55.36-10.5 118.95-13.74 171-13.74 52.07 0 115.66 3.24 171 13.74a2.49 2.49 0 0 0 2.76-3.71l-36.3-80.37c-.39-.74-23.9-12.38-23.9-12.38-29.89-6.27-79.12-3.52-113.46 9.11h-.12c-22.55-8.29-51.48-12.32-77.16-12.34Zm-32.29 14.55-17.57 50c35.58-6.72 74.94-9.23 118.56 5l-.08 3.85c-39.46-1.56-107.56-1.56-141.71 10.66L386 333.18l16.54-8.85Zm218.46 0 16.56 8.85 24.26 60.74C629.38 381.7 561.27 381.7 520 383.27v-3.85c43.61-14.28 83-11.77 118.56-5l-17.65-50ZM502 435.17v343.65c-60.19-33.21-181.06-127.4-212.3-320.52l1.47-.31A1071.09 1071.09 0 0 1 502 435.16Zm20.07 0c14.2.12 28.4.49 42.55 1.19v72.34L522 480.36v-45.19Zm85.12 4.14c14.23 1.26 28.43 2.72 42.57 4.55v121.48l42.52 28.31V450.29c13.6 2.32 27.16 4.8 40.64 7.65l1.45.32c-8.43 52.13-23.42 97-42 135.48 0 0-.07.16-.11.21a441.5 441.5 0 0 1-42.48 70.56A430.62 430.62 0 0 1 607.17 714v-77.88l-42.57-28.33V751a360.25 360.25 0 0 1-42.6 27.82V579.45l42.55 28.34V508.7l42.62 28.3v-97.7Zm0 196.81 42.57 28.32v-99.1L607.17 537ZM410.92 472a77.9 77.9 0 1 0 77.9 77.9 78 78 0 0 0-77.9-77.9Zm-14.11 11.31a103 103 0 0 0-18.62 28.32A135.08 135.08 0 0 1 359 506a68.11 68.11 0 0 1 37.83-22.69Zm28.28 0A68.13 68.13 0 0 1 462.88 506a134 134 0 0 1-19.2 5.62 103 103 0 0 0-18.58-28.3Zm-9.28 4.55a96.26 96.26 0 0 1 17.79 25.51 155.42 155.42 0 0 1-17.79 1.49v-27ZM406 488v26.89a156.89 156.89 0 0 1-17.66-1.48A96.85 96.85 0 0 1 406 488Zm-52.93 26.22a139.59 139.59 0 0 0 21.68 6.72 94.84 94.84 0 0 0-4.34 24.06h-27.32a67.61 67.61 0 0 1 10-30.78Zm115.71 0a67.52 67.52 0 0 1 10 30.78h-27.3a95.39 95.39 0 0 0-4.33-24.06 139 139 0 0 0 21.62-6.72Zm-84.21 8.57A168.45 168.45 0 0 0 406 524.7V545h-25.73a83.43 83.43 0 0 1 4.3-22.21Zm52.81 0a85.7 85.7 0 0 1 4.26 22.21h-25.81v-20.3a171.3 171.3 0 0 0 21.55-1.94Zm-94.28 32h27.32a96 96 0 0 0 4.31 24.06 138.73 138.73 0 0 0-21.66 6.72 67.31 67.31 0 0 1-9.97-30.78Zm37.17 0H406v20.27a168.68 168.68 0 0 0-21.43 1.94 83 83 0 0 1-4.3-22.19Zm35.56 0h25.81a83.84 83.84 0 0 1-4.31 22.21 165.45 165.45 0 0 0-21.5-1.94Zm35.66 0h27.28a67.47 67.47 0 0 1-10 30.78 137.71 137.71 0 0 0-21.62-6.71 95.5 95.5 0 0 0 4.33-24.07ZM406 584.89v26.89a97.23 97.23 0 0 1-17.66-25.41 159.69 159.69 0 0 1 17.66-1.48Zm9.83 0a157.2 157.2 0 0 1 17.72 1.49 95.58 95.58 0 0 1-17.72 25.45v-26.94Zm-37.63 3.25a103 103 0 0 0 18.62 28.32A68.07 68.07 0 0 1 359 593.77a135.87 135.87 0 0 1 19.2-5.62Zm65.48 0a133.87 133.87 0 0 1 19.2 5.61 68.06 68.06 0 0 1-37.78 22.68 103.06 103.06 0 0 0 18.58-28.29Z" style="fill:#fff"/>
</svg>
